packages/ui-solid/icons/delete_24.svg

<svg width="24" height="24" viewBox="0 0 24 24" fill="none" xmlns="http://www.w3.org/2000/svg">
<path fill-rule="evenodd" clip-rule="evenodd" d="M11.752 2.06204H12.2492C12.3699 2.06203 12.4631 2.06202 12.5469 2.06627C14.0312 2.14158 15.2528 3.19701 15.5788 4.59975H19.2867C19.7838 4.59975 20.1867 5.0027 20.1867 5.49975C20.1867 5.99681 19.7838 6.39975 19.2867 6.39975H4.71448C4.21743 6.39975 3.81448 5.99681 3.81448 5.49975C3.81448 5.0027 4.21743 4.59975 4.71448 4.59975H8.42236C8.74843 3.19701 9.97001 2.14158 11.4543 2.06627C11.5381 2.06202 11.6312 2.06203 11.752 2.06204ZM10.3379 4.59975H13.6633C13.4181 4.17894 12.9721 3.89016 12.4557 3.86395C12.4238 3.86234 12.3805 3.86205 12.2266 3.86205H11.7746C11.6207 3.86205 11.5774 3.86234 11.5455 3.86395C11.0291 3.89016 10.5831 4.17894 10.3379 4.59975ZM5.72875 8.17475C6.2223 8.11583 6.67017 8.46818 6.72908 8.96173L7.61895 16.4167C7.74115 17.4405 7.82437 18.1232 7.95148 18.6298C8.07236 19.1115 8.20676 19.3175 8.35805 19.4518C8.50934 19.5861 8.72981 19.6952 9.2225 19.7581C9.74053 19.8243 10.4283 19.826 11.4593 19.826H12.5418C13.5728 19.826 14.2607 19.8243 14.7787 19.7581C15.2714 19.6952 15.4918 19.5861 15.6431 19.4518C15.7944 19.3175 15.9288 19.1115 16.0497 18.6298C16.1768 18.1232 16.26 17.4405 16.3822 16.4167L17.2721 8.96173C17.331 8.46818 17.7789 8.11583 18.2724 8.17475C18.766 8.23366 19.1183 8.68152 19.0594 9.17508L18.1627 16.6875C18.0492 17.6387 17.954 18.4367 17.7956 19.0679C17.6278 19.7365 17.364 20.3311 16.8381 20.7979C16.3123 21.2647 15.6906 21.4563 15.0068 21.5436C14.3612 21.6261 13.5576 21.626 12.5997 21.626H11.4015C10.4436 21.626 9.63995 21.6261 8.99443 21.5436C8.31062 21.4563 7.68891 21.2647 7.16307 20.7979C6.63723 20.3311 6.37338 19.7365 6.2056 19.0679C6.04722 18.4367 5.95199 17.6387 5.83849 16.6875L4.94177 9.17508C4.88285 8.68152 5.2352 8.23366 5.72875 8.17475Z" fill="#007AFF"/>
</svg>

<svg xmlns="http://www.w3.org/2000/svg" width="24" height="24" fill="none"><path fill="currentColor" fill-rule="evenodd" d="M11.752 2.062h.497A3.285 3.285 0 0 1 15.58 4.6h3.708a.9.9 0 1 1 0 1.8H4.714a.9.9 0 0 1 0-1.8h3.708a3.285 3.285 0 0 1 3.032-2.534c.084-.004.177-.004.298-.004M10.338 4.6h3.325a1.48 1.48 0 0 0-1.207-.736 6 6 0 0 0-.23-.002h-.451c-.154 0-.198 0-.23.002a1.48 1.48 0 0 0-1.207.736m-4.61 3.575a.9.9 0 0 1 1.001.787l.89 7.455c.122 1.023.205 1.706.332 2.213.121.482.256.688.407.822s.372.243.864.306c.519.066 1.206.068 2.237.068h1.083c1.03 0 1.719-.002 2.237-.068.492-.063.713-.172.864-.306.151-.135.286-.34.407-.822.127-.507.21-1.19.332-2.213l.89-7.455a.9.9 0 1 1 1.787.213l-.896 7.512c-.114.952-.209 1.75-.367 2.38-.168.67-.432 1.264-.958 1.73-.526.468-1.147.66-1.831.747-.646.082-1.45.082-2.407.082h-1.198c-.958 0-1.762 0-2.408-.082-.683-.088-1.305-.28-1.83-.746-.527-.467-.79-1.061-.958-1.73-.159-.631-.254-1.43-.368-2.38l-.896-7.513a.9.9 0 0 1 .787-1" clip-rule="evenodd"/></svg>
